X: 34
T: UP A LAZY RIVER
C: H.Carmichael
M: C
L: 1/8
K: Eb
|: "C7"C>=E G>_d c>B =B,>C | "C7"B2 "B7"_B2 "Bb7"A3 "(C/E#)"G | "F7"=A,>C E>G F>E ^G,>=A, | "F"D2 "Gb"_D2 "F9"C4 |
[1 "Bb7"D>c B>=A _A2 =B,>C | "Bb"G2 "B7"_G2 "Bb7"F4 | "Eb"^F>G B,>=A, "Bb7"_A,>=F "Adim"C>D | "Eb"E2 G,B,- B,4 :|
[2 "Ab"c>B A>G "Adim"_G4 | "Eb"e>d "D7"c>=B "Db6"_B2- "C7"B2 | "F9"c>e c>G "Bb7"BG2B, |
"Eb"E>E "D7"D>E "C7"=E4 | "F9"c>e c>G "Bb7"BG2 B, | "Eb Db6 Db Eb6"E6 z2 |]


